Automatic/src/svg/on.svg

<svg xmlns="http://www.w3.org/2000/svg" xml:space="preserve" width="213.333" height="96"><defs><clipPath id="a" clipPathUnits="userSpaceOnUse"><path d="M0 256h256V0H0Z"/></clipPath></defs><g clip-path="url(#a)" transform="matrix(1.33333 0 0 -1.33333 -64 218.667)"><path d="M0 0h-88c-19.851 0-36-16.149-36-36s16.149-36 36-36H0c19.882 0 36 16.118 36 36S19.882 0 0 0m0-4c17.645 0 32-14.355 32-32S17.645-68 0-68h-88c-17.645 0-32 14.355-32 32s14.355 32 32 32z" style="fill:#fff;fill-opacity:1;fill-rule:nonzero;stroke:none" transform="translate(172 164)"/><path d="M0 0c-13.233 0-24 10.767-24 24s10.767 24 24 24 24-10.767 24-24S13.233 0 0 0m0 52c-15.464 0-28-12.536-28-28S-15.464-4 0-4 28 8.536 28 24 15.464 52 0 52" style="fill:#fff;fill-opacity:1;fill-rule:nonzero;stroke:none" transform="translate(172 104)"/><path d="M0 0c-11.046 0-20-8.954-20-20s8.954-20 20-20 20 8.954 20 20S11.046 0 0 0m0-4c8.822 0 16-7.178 16-16S8.822-36 0-36s-16 7.178-16 16S-8.822-4 0-4" style="fill:#fff;fill-opacity:1;fill-rule:nonzero;stroke:none" transform="translate(172 148)"/></g></svg>

<?xml version="1.0" encoding="UTF-8" standalone="no"?>
<svg
   xmlns:dc="http://purl.org/dc/elements/1.1/"
   xmlns:cc="http://creativecommons.org/ns#"
   xmlns:rdf="http://www.w3.org/1999/02/22-rdf-syntax-ns#"
   xmlns:svg="http://www.w3.org/2000/svg"
   xmlns="http://www.w3.org/2000/svg"
   viewBox="0 0 213.33333 95.999999"
   height="96"
   width="213.33333"
   xml:space="preserve"
   id="svg2"
   version="1.1"><metadata
     id="metadata8"><rdf:RDF><cc:Work
         rdf:about=""><dc:format>image/svg+xml</dc:format><dc:type
           rdf:resource="http://purl.org/dc/dcmitype/StillImage" /></cc:Work></rdf:RDF></metadata><defs
     id="defs6"><clipPath
       id="clipPath18"
       clipPathUnits="userSpaceOnUse"><path
         id="path16"
         d="M 0,256 H 256 V 0 H 0 Z" /></clipPath></defs><g
     transform="matrix(1.3333333,0,0,-1.3333333,-63.999998,218.66666)"
     id="g10"><g
       id="g12"><g
         clip-path="url(#clipPath18)"
         id="g14"><g
           transform="translate(172,164)"
           id="g20"><path
             id="path22"
             style="fill:#ffffff;fill-opacity:1;fill-rule:nonzero;stroke:none"
             d="m 0,0 h -88 c -19.851,0 -36,-16.149 -36,-36 0,-19.851 16.149,-36 36,-36 H 0 c 19.882,0 36,16.118 36,36 C 36,-16.118 19.882,0 0,0 M 0,-4 C 17.645,-4 32,-18.355 32,-36 32,-53.645 17.645,-68 0,-68 h -88 c -17.645,0 -32,14.355 -32,32 0,17.645 14.355,32 32,32 H 0" /></g><g
           transform="translate(172,104)"
           id="g24"><path
             id="path26"
             style="fill:#ffffff;fill-opacity:1;fill-rule:nonzero;stroke:none"
             d="M 0,0 C -13.233,0 -24,10.767 -24,24 -24,37.233 -13.233,48 0,48 13.233,48 24,37.233 24,24 24,10.767 13.233,0 0,0 M 0,52 C -15.464,52 -28,39.464 -28,24 -28,8.536 -15.464,-4 0,-4 15.464,-4 28,8.536 28,24 28,39.464 15.464,52 0,52" /></g><g
           transform="translate(172,148)"
           id="g28"><path
             id="path30"
             style="fill:#ffffff;fill-opacity:1;fill-rule:nonzero;stroke:none"
             d="m 0,0 c -11.046,0 -20,-8.954 -20,-20 0,-11.046 8.954,-20 20,-20 11.046,0 20,8.954 20,20 C 20,-8.954 11.046,0 0,0 m 0,-4 c 8.822,0 16,-7.178 16,-16 0,-8.822 -7.178,-16 -16,-16 -8.822,0 -16,7.178 -16,16 0,8.822 7.178,16 16,16" /></g></g></g></g></svg>
